assets/illustrations/multisize/48/accdb.svg

<svg id="5a9a5de8-9ef3-4d91-9228-083ac8e07fe4" data-name="ICONS" xmlns="http://www.w3.org/2000/svg" xmlns:xlink="http://www.w3.org/1999/xlink" viewBox="0 0 48 48"><defs><linearGradient id="69371064-b7b9-4355-b553-790df1a0580e" x1="8.58668" y1="5.86411" x2="42.48928" y2="46.26765" gradientUnits="userSpaceOnUse"><stop offset="0" stop-color="#fff" stop-opacity="0"/><stop offset="0.86247" stop-color="#5e5e5e" stop-opacity="0.06315"/><stop offset="1" stop-opacity="0.1"/></linearGradient><linearGradient id="0cbf3102-45ca-4a56-a8eb-0328a84d3fc6" x1="38" y1="16.90625" x2="38" y2="14.08751" gradientUnits="userSpaceOnUse"><stop offset="0" stop-color="#828282" stop-opacity="0"/><stop offset="0.86247" stop-color="#303030" stop-opacity="0.06315"/><stop offset="1" stop-opacity="0.1"/></linearGradient><linearGradient id="9be599e0-0df2-4e1d-b468-2aa1a4051f05" x1="31.27" y1="12.23" x2="37.23606" y2="6.26394" gradientUnits="userSpaceOnUse"><stop offset="0" stop-color="#fff" stop-opacity="0"/><stop offset="0.44604" stop-color="#fff" stop-opacity="0.00799"/><stop offset="0.63551" stop-color="#fff" stop-opacity="0.03616"/><stop offset="0.77636" stop-color="#fff" stop-opacity="0.08493"/><stop offset="0.8924" stop-color="#fff" stop-opacity="0.15385"/><stop offset="0.99328" stop-color="#fff" stop-opacity="0.24291"/><stop offset="1" stop-color="#fff" stop-opacity="0.25"/></linearGradient><linearGradient id="be9a8965-bda3-49ea-bdf6-55c253417f67" x1="14" y1="39.1875" x2="14" y2="14.75839" gradientUnits="userSpaceOnUse"><stop offset="0" stop-color="#fff" stop-opacity="0"/><stop offset="0.52587" stop-color="#fff" stop-opacity="0.00735"/><stop offset="0.71529" stop-color="#fff" stop-opacity="0.03396"/><stop offset="0.8503" stop-color="#fff" stop-opacity="0.0803"/><stop offset="0.95875" stop-color="#fff" stop-opacity="0.14595"/><stop offset="1" stop-color="#fff" stop-opacity="0.18"/></linearGradient><linearGradient id="2e6cbf6b-2d71-478c-a34c-2b744f0109f2" x1="17.75381" y1="42.91826" x2="18.17734" y2="38.93002" gradientUnits="userSpaceOnUse"><stop offset="0" stop-color="#828282" stop-opacity="0"/><stop offset="0.99719" stop-opacity="0.2"/></linearGradient></defs><title>FileTypeIcons_Master_All_NEW</title><polygon points="43 44 13 44 13 4 34 4 43 13 43 44" fill="#fff"/><path d="M34.00049,3H12V45H44V13ZM34,4.5,42.5,13H34ZM43,44H13V4H33V14H43Z" fill="#949494"/><path d="M39,25V38H24V25H39m1-1H23V39H40V24Z" fill="#c8c8c8"/><path d="M32,17v7H18V17H32m1-1H17v9H33V16Z" fill="#c8c8c8"/><polygon points="4 17 24 14 24 40 4 37 4 17" fill="#a4373a"/><path d="M20,33H17.01484l-.865-2.66946H11.82473L10.9682,33H8l4.42686-12h3.24805Zm-4.47774-4.74477-1.306-4.03347a5.18294,5.18294,0,0,1-.20353-1.0795h-.06784a4.53589,4.53589,0,0,1-.212,1.046l-1.323,4.067Z" fill="#fff"/><rect x="24" y="24" width="16" height="3" fill="#f7a8ab"/><rect x="24" y="16" width="9" height="3" fill="#f7a8ab"/><rect x="26" y="29" width="3" height="1" fill="#f7a8ab"/><rect x="31" y="29" width="6" height="1" fill="#c8c8c8"/><rect x="25" y="21" width="5" height="1" fill="#c8c8c8"/><rect x="26" y="32" width="3" height="1" fill="#f7a8ab"/><rect x="31" y="32" width="6" height="1" fill="#c8c8c8"/><rect x="26" y="35" width="3" height="1" fill="#f7a8ab"/><rect x="31" y="35" width="6" height="1" fill="#c8c8c8"/><path d="M44,13,34,3H12V45H44Z" fill="url(#69371064-b7b9-4355-b553-790df1a0580e)"/><rect x="33" y="14" width="10" height="3" fill="url(#0cbf3102-45ca-4a56-a8eb-0328a84d3fc6)"/><polygon points="12 3 12 4 33 4 33 14 43 14 43 28 44 28 44 13 34 3 12 3" fill="url(#9be599e0-0df2-4e1d-b468-2aa1a4051f05)"/><polygon points="24 14 4 17 4 37 24 40 24 14" fill="url(#be9a8965-bda3-49ea-bdf6-55c253417f67)"/><polygon points="24 43 12 43 12 38.2 24 40 24 43" fill="url(#2e6cbf6b-2d71-478c-a34c-2b744f0109f2)"/></svg>

<?xml version="1.0" encoding="utf-8"?>
<!-- Generator: Adobe Illustrator 21.1.0, SVG Export Plug-In . SVG Version: 6.00 Build 0)  -->
<svg version="1.1" xmlns="http://www.w3.org/2000/svg" xmlns:xlink="http://www.w3.org/1999/xlink" x="0px" y="0px"
	 viewBox="0 0 48 48" enable-background="new 0 0 48 48" xml:space="preserve">
<g id="TEMPLATE" display="none">
	<g display="inline">
		<path fill="#D0D0D0" d="M48,0v48H0V0H48 M49-1h-1H0h-1v1v48v1h1h48h1v-1V0V-1L49-1z"/>
	</g>
	<g display="inline" opacity="0.1">
		<path fill="#FF3A6D" d="M45,3v42H3V3H45 M48,0H0v48h48V0L48,0z"/>
	</g>
</g>
<g id="ICONS">
	<g>
		<polygon fill="#FFFFFF" points="43,44 13,44 13,4 34,4 43,13 		"/>
		<path fill="#949494" d="M34.0005,3H12v42h32V13L34.0005,3z M34,4.5l8.5,8.5H34V4.5z M43,44H13V4h20v10h10V44z"/>
	</g>
	<g>
		<path fill="#C8C8C8" d="M39,25v13H24V25H39 M40,24H23v15h17V24L40,24z"/>
	</g>
	<g>
		<path fill="#C8C8C8" d="M32,17v7H18v-7H32 M33,16H17v9h16V16L33,16z"/>
	</g>
	<polygon fill="#A4373A" points="4,17 24,14 24,40 4,37 	"/>
	<g>
		<path fill="#FFFFFF" d="M20,33h-2.9852l-0.865-2.6695h-4.3251L10.9682,33H8l4.4269-12h3.2481L20,33z M15.5223,28.2552
			l-1.306-4.0335c-0.0962-0.3013-0.164-0.6611-0.2035-1.0795h-0.0678c-0.0284,0.3515-0.0991,0.7003-0.212,1.046l-1.323,4.0669
			H15.5223z"/>
	</g>
	<rect x="24" y="24" fill="#F7A8AB" width="16" height="3"/>
	<rect x="24" y="16" fill="#F7A8AB" width="9" height="3"/>
	<rect x="26" y="29" fill="#F7A8AB" width="3" height="1"/>
	<g>
		<rect x="31" y="29" fill="#C8C8C8" width="6" height="1"/>
	</g>
	<g>
		<rect x="25" y="21" fill="#C8C8C8" width="5" height="1"/>
	</g>
	<rect x="26" y="32" fill="#F7A8AB" width="3" height="1"/>
	<g>
		<rect x="31" y="32" fill="#C8C8C8" width="6" height="1"/>
	</g>
	<rect x="26" y="35" fill="#F7A8AB" width="3" height="1"/>
	<g>
		<rect x="31" y="35" fill="#C8C8C8" width="6" height="1"/>
	</g>
	<linearGradient id="SVGID_1_" gradientUnits="userSpaceOnUse" x1="8.5867" y1="5.8641" x2="42.4893" y2="46.2676">
		<stop  offset="0" style="stop-color:#FFFFFF;stop-opacity:0"/>
		<stop  offset="0.2264" style="stop-color:#FCFCFC;stop-opacity:0.0226"/>
		<stop  offset="0.3626" style="stop-color:#F4F4F4;stop-opacity:0.0363"/>
		<stop  offset="0.475" style="stop-color:#E6E6E6;stop-opacity:0.0475"/>
		<stop  offset="0.5744" style="stop-color:#D1D1D1;stop-opacity:0.0574"/>
		<stop  offset="0.6652" style="stop-color:#B7B7B7;stop-opacity:0.0665"/>
		<stop  offset="0.7498" style="stop-color:#979797;stop-opacity:0.075"/>
		<stop  offset="0.8297" style="stop-color:#707070;stop-opacity:0.083"/>
		<stop  offset="0.9057" style="stop-color:#444444;stop-opacity:0.0906"/>
		<stop  offset="0.9761" style="stop-color:#121212;stop-opacity:0.0976"/>
		<stop  offset="1" style="stop-color:#000000;stop-opacity:0.1"/>
	</linearGradient>
	<path fill="url(#SVGID_1_)" d="M44,13L34,3H12v42h32V13z"/>
	<linearGradient id="SVGID_2_" gradientUnits="userSpaceOnUse" x1="38" y1="16.9063" x2="38" y2="14.0875">
		<stop  offset="0" style="stop-color:#828282;stop-opacity:0"/>
		<stop  offset="0.2812" style="stop-color:#7F7F7F;stop-opacity:0.0281"/>
		<stop  offset="0.4503" style="stop-color:#777777;stop-opacity:0.045"/>
		<stop  offset="0.5899" style="stop-color:#696969;stop-opacity:0.059"/>
		<stop  offset="0.7133" style="stop-color:#545454;stop-opacity:0.0713"/>
		<stop  offset="0.8259" style="stop-color:#3A3A3A;stop-opacity:0.0826"/>
		<stop  offset="0.9294" style="stop-color:#1A1A1A;stop-opacity:0.0929"/>
		<stop  offset="1" style="stop-color:#000000;stop-opacity:0.1"/>
	</linearGradient>
	<rect x="33" y="14" fill="url(#SVGID_2_)" width="10" height="3"/>
	<linearGradient id="SVGID_3_" gradientUnits="userSpaceOnUse" x1="31.27" y1="12.23" x2="37.2361" y2="6.2639">
		<stop  offset="0" style="stop-color:#FFFFFF;stop-opacity:0"/>
		<stop  offset="0.8537" style="stop-color:#FFFFFF;stop-opacity:0.2134"/>
		<stop  offset="1" style="stop-color:#FFFFFF;stop-opacity:0.25"/>
	</linearGradient>
	<polygon fill="url(#SVGID_3_)" points="12,3 12,4 33,4 33,14 43,14 43,28 44,28 44,13 34,3 	"/>
	<linearGradient id="SVGID_4_" gradientUnits="userSpaceOnUse" x1="14" y1="39.1875" x2="14" y2="14.7584">
		<stop  offset="0" style="stop-color:#FFFFFF;stop-opacity:0"/>
		<stop  offset="0.8587" style="stop-color:#FFFFFF;stop-opacity:0.1546"/>
		<stop  offset="1" style="stop-color:#FFFFFF;stop-opacity:0.18"/>
	</linearGradient>
	<polygon fill="url(#SVGID_4_)" points="24,14 4,17 4,37 24,40 	"/>
	<linearGradient id="SVGID_5_" gradientUnits="userSpaceOnUse" x1="17.7538" y1="42.9183" x2="18.1773" y2="38.93">
		<stop  offset="0" style="stop-color:#828282;stop-opacity:0"/>
		<stop  offset="0.1699" style="stop-color:#7E7E7E;stop-opacity:0.0341"/>
		<stop  offset="0.346" style="stop-color:#717171;stop-opacity:0.0694"/>
		<stop  offset="0.5248" style="stop-color:#5D5D5D;stop-opacity:0.1053"/>
		<stop  offset="0.7057" style="stop-color:#404040;stop-opacity:0.1415"/>
		<stop  offset="0.8863" style="stop-color:#1B1B1B;stop-opacity:0.1778"/>
		<stop  offset="0.9972" style="stop-color:#000000;stop-opacity:0.2"/>
	</linearGradient>
	<polygon fill="url(#SVGID_5_)" points="24,43 12,43 12,38.2 24,40 	"/>
</g>
</svg>
